media/icon/hammer.svg

<svg width="90" height="90" viewBox="0 0 90 90" fill="none" xmlns="http://www.w3.org/2000/svg">
<path fill-rule="evenodd" clip-rule="evenodd" d="M46.26 4.7475C47.7603 4.75943 49.2138 5.27086 50.391 6.201L81.2745 30.5685C82.4546 31.4983 83.2907 32.7953 83.6505 34.254L84.5055 37.7325C84.752 38.7311 84.767 39.7728 84.5494 40.7781C84.3318 41.7834 83.8874 42.7257 83.25 43.533L72.045 57.735C71.4079 58.5413 70.5952 59.1914 69.6687 59.6359C68.7423 60.0805 67.7265 60.3076 66.699 60.3L63.1125 60.2775C61.6128 60.2668 60.1593 59.757 58.9815 58.8285L28.0935 34.461C26.9134 33.5312 26.0773 32.2342 25.7175 30.7755L24.8625 27.297C24.6167 26.2991 24.6021 25.2582 24.8196 24.2537C25.0372 23.2493 25.4813 22.3078 26.118 21.501L37.3275 7.29C37.9641 6.48291 38.7767 5.83188 39.7031 5.38658C40.6296 4.94127 41.6456 4.71345 42.6735 4.7205L46.26 4.7475ZM47.6055 9.7335C47.2133 9.42291 46.7288 9.2519 46.2285 9.2475L42.642 9.225C42.2995 9.22247 41.9609 9.29818 41.6521 9.44635C41.3433 9.59452 41.0724 9.81124 40.86 10.08L29.655 24.2865C29.4423 24.5558 29.294 24.8701 29.2215 25.2055C29.149 25.5409 29.1541 25.8884 29.2365 26.2215L30.0915 29.7C30.2114 30.1862 30.4901 30.6185 30.8835 30.9285L61.767 55.3005C62.1598 55.6095 62.6443 55.7789 63.144 55.782L66.7305 55.809C67.073 55.8115 67.4116 55.7358 67.7204 55.5876C68.0292 55.4395 68.3001 55.2228 68.5125 54.954L79.722 40.743C79.9347 40.4737 80.083 40.1594 80.1555 39.824C80.228 39.4886 80.2229 39.1411 80.1405 38.808L79.2855 35.3295C79.1656 34.8433 78.8869 34.4109 78.4935 34.101L47.6055 9.7335ZM39.9825 43.8795L16.308 73.89C15.9383 74.3579 15.7695 74.9535 15.8387 75.5459C15.9079 76.1382 16.2094 76.6788 16.677 77.049L20.2095 79.839C20.4416 80.0225 20.7076 80.1584 20.9924 80.239C21.2771 80.3195 21.5749 80.3431 21.8687 80.3084C22.1626 80.2738 22.4467 80.1814 22.7048 80.0368C22.9629 79.8921 23.19 79.698 23.373 79.4655L47.0475 49.4595L50.58 52.2495L26.9055 82.2555C26.3563 82.9514 25.6753 83.5323 24.9016 83.965C24.1278 84.3978 23.2764 84.6738 22.3959 84.7775C21.5154 84.8811 20.6232 84.8103 19.7701 84.569C18.917 84.3278 18.1198 83.9209 17.424 83.3715L13.8915 80.5815C12.4873 79.4724 11.581 77.8511 11.3718 76.074C11.1625 74.2969 11.6674 72.5095 12.7755 71.1045L36.45 41.094L39.9825 43.8795Z" fill="white"/>
<path fill-rule="evenodd" clip-rule="evenodd" d="M60.192 18.27L64.377 12.969C64.7471 12.5014 65.2878 12.1999 65.8801 12.1307C66.4725 12.0615 67.0681 12.2303 67.536 12.6L71.0685 15.39C71.5355 15.7594 71.837 16.2988 71.907 16.8901C71.977 17.4813 71.8098 18.0763 71.442 18.5445L67.257 23.8455L70.794 26.6355L74.9745 21.3345C75.5236 20.6384 75.9302 19.841 76.1711 18.9877C76.412 18.1345 76.4824 17.2421 76.3784 16.3616C76.2743 15.4811 75.9978 14.6298 75.5647 13.8562C75.1316 13.0826 74.5503 12.4019 73.854 11.853L70.3215 9.06299C68.916 7.95538 67.1282 7.45122 65.351 7.66134C63.5739 7.87145 61.953 8.77864 60.8445 10.1835L56.6595 15.48L60.192 18.27Z" fill="white"/>
</svg>

<svg xmlns="http://www.w3.org/2000/svg" width="90" height="90" fill="none"><path fill="#fff" fill-rule="evenodd" d="M46.26 4.748A6.75 6.75 0 0 1 50.391 6.2l30.884 24.368a6.75 6.75 0 0 1 2.375 3.685l.855 3.479a6.75 6.75 0 0 1-1.255 5.8L72.045 57.735a6.75 6.75 0 0 1-5.346 2.565l-3.587-.022a6.75 6.75 0 0 1-4.13-1.45L28.093 34.462a6.75 6.75 0 0 1-2.376-3.685l-.855-3.479a6.75 6.75 0 0 1 1.255-5.796L37.328 7.29a6.75 6.75 0 0 1 5.345-2.57zm1.346 4.985a2.25 2.25 0 0 0-1.378-.486l-3.586-.022a2.25 2.25 0 0 0-1.782.855L29.655 24.287a2.25 2.25 0 0 0-.419 1.935l.855 3.478c.12.486.4.919.793 1.229L61.767 55.3a2.25 2.25 0 0 0 1.377.481l3.587.027a2.25 2.25 0 0 0 1.782-.855l11.209-14.211a2.25 2.25 0 0 0 .419-1.935l-.856-3.478a2.25 2.25 0 0 0-.791-1.229zM39.983 43.88 16.308 73.89a2.25 2.25 0 0 0 .369 3.159l3.532 2.79a2.25 2.25 0 0 0 3.164-.373L47.048 49.46l3.532 2.79-23.674 30.005a6.75 6.75 0 0 1-9.482 1.117l-3.532-2.79a6.75 6.75 0 0 1-1.117-9.477L36.45 41.094z" clip-rule="evenodd"/><path fill="#fff" fill-rule="evenodd" d="m60.192 18.27 4.185-5.301a2.25 2.25 0 0 1 3.159-.369l3.532 2.79a2.25 2.25 0 0 1 .374 3.154l-4.185 5.302 3.537 2.79 4.18-5.302a6.75 6.75 0 0 0-1.12-9.481l-3.532-2.79a6.75 6.75 0 0 0-9.478 1.12L56.66 15.48z" clip-rule="evenodd"/></svg>
